tipitek/img/icon-people.svg

<svg width="16" height="17" viewBox="0 0 16 17" fill="none" xmlns="http://www.w3.org/2000/svg">
<path fill-rule="evenodd" clip-rule="evenodd" d="M6.39434 9.80471C8.56701 9.80471 11.4557 10.0494 11.4557 12.166C11.4557 14.3957 8.08975 14.5295 6.64595 14.5375L6.12174 14.5375C4.5823 14.5296 1.33301 14.3965 1.33301 12.1794C1.33301 9.94719 4.69893 9.81326 6.14274 9.80522L6.3162 9.80473C6.34324 9.80471 6.3693 9.80471 6.39434 9.80471ZM6.39434 10.8047C4.54167 10.8047 2.33301 11.0427 2.33301 12.1794C2.33301 13.0807 3.69967 13.538 6.39434 13.538C9.08901 13.538 10.4557 13.076 10.4557 12.166C10.4557 11.2627 9.08901 10.8047 6.39434 10.8047ZM12.4708 9.49331C14.2748 9.76331 14.6528 10.5986 14.6528 11.2513C14.6528 11.7373 14.4428 12.3953 13.4408 12.7746C13.3828 12.7966 13.3228 12.8073 13.2635 12.8073C13.0615 12.8073 12.8715 12.684 12.7961 12.4846C12.6981 12.2266 12.8281 11.9373 13.0861 11.84C13.6528 11.6253 13.6528 11.3633 13.6528 11.2513C13.6528 10.8733 13.2055 10.6146 12.3235 10.4833C12.0501 10.442 11.8615 10.1873 11.9021 9.91464C11.9435 9.64131 12.2028 9.45797 12.4708 9.49331ZM6.39434 1.83337C8.28167 1.83337 9.81771 3.36937 9.81771 5.25671C9.82168 6.16604 9.46901 7.02471 8.82634 7.67137C8.18501 8.31871 7.32834 8.67671 6.41701 8.68004H6.39434C4.50634 8.68004 2.97034 7.14404 2.97034 5.25671C2.97034 3.36937 4.50634 1.83337 6.39434 1.83337ZM11.1194 2.58257C12.4294 2.79724 13.3801 3.91791 13.3801 5.24657C13.3774 6.58324 12.3794 7.73124 11.0581 7.91657C11.0347 7.91991 11.0114 7.92124 10.9881 7.92124C10.7427 7.92124 10.5287 7.74057 10.4934 7.49057C10.4554 7.21724 10.6454 6.96391 10.9187 6.92591C11.7507 6.80924 12.3787 6.08724 12.3801 5.24591C12.3801 4.40991 11.7814 3.70457 10.9581 3.56991C10.6854 3.52457 10.5007 3.26791 10.5454 2.99524C10.5901 2.72257 10.8481 2.53924 11.1194 2.58257ZM6.39434 2.83337C5.05767 2.83337 3.97034 3.92071 3.97034 5.25671C3.97034 6.59271 5.05767 7.68004 6.39434 7.68004H6.41501C7.05767 7.67737 7.66301 7.42471 8.11701 6.96671C8.57168 6.51004 8.82034 5.90271 8.8177 5.25871C8.8177 3.92071 7.73034 2.83337 6.39434 2.83337Z" fill="#30CBFF"/>
</svg>

<svg width="16" height="17" fill="none" xmlns="http://www.w3.org/2000/svg"><path fill-rule="evenodd" clip-rule="evenodd" d="M6.394 9.805c2.173 0 5.062.244 5.062 2.361 0 2.23-3.366 2.364-4.81 2.371h-.524c-1.54-.007-4.789-.14-4.789-2.358 0-2.232 3.366-2.366 4.81-2.374h.251zm0 1c-1.852 0-4.061.238-4.061 1.374 0 .902 1.367 1.359 4.061 1.359 2.695 0 4.062-.462 4.062-1.372 0-.903-1.367-1.361-4.062-1.361zm6.077-1.312c1.804.27 2.182 1.106 2.182 1.758 0 .486-.21 1.144-1.212 1.524a.5.5 0 1 1-.355-.935c.567-.215.567-.477.567-.589 0-.378-.447-.636-1.33-.768a.501.501 0 0 1-.42-.568.508.508 0 0 1 .568-.422zm-6.077-7.66a3.428 3.428 0 0 1 3.424 3.424 3.385 3.385 0 0 1-.992 2.414A3.387 3.387 0 0 1 6.417 8.68h-.023A3.428 3.428 0 0 1 2.97 5.257a3.428 3.428 0 0 1 3.424-3.424zm4.725.75a2.689 2.689 0 0 1 2.261 2.664 2.712 2.712 0 0 1-2.322 2.67.5.5 0 0 1-.14-.99 1.706 1.706 0 0 0 1.462-1.681c0-.836-.599-1.541-1.422-1.676a.5.5 0 0 1 .161-.987zm-4.725.25A2.427 2.427 0 0 0 3.97 5.257 2.427 2.427 0 0 0 6.394 7.68h.021a2.396 2.396 0 0 0 1.702-.713 2.392 2.392 0 0 0 .7-1.708 2.427 2.427 0 0 0-2.423-2.426z" fill="#30CBFF"/></svg>
